src/assets/hangman-icon.svg

<svg width="165" height="223" viewBox="0 0 165 223" fill="#aaa" xmlns="http://www.w3.org/2000/svg">
<g id="hangman">
<path id="Vector 2" d="M2.32333 208.501L27.1741 154.372L26.6314 192.616L17.1401 212.487C14.9556 217.061 11.5355 221.981 6.46776 221.902C3.75314 221.859 2.10344 220.349 1.16887 218.427C-0.353573 215.297 0.870971 211.665 2.32333 208.501Z" fill="#aaa" stroke="black" stroke-width="0.5"/>
<path id="Vector 2_2" d="M66.8508 208.501L42 154.372L42.5427 192.616L52.0341 212.487C54.2185 217.061 57.6386 221.981 62.7064 221.902C65.421 221.859 67.0707 220.349 68.0053 218.427C69.5277 215.297 68.3032 211.665 66.8508 208.501Z" fill="#aaa" stroke="black" stroke-width="0.5"/>
<rect id="Rectangle 7" x="0.353553" y="-2.98023e-08" width="10.9791" height="87.5061" rx="5.48953" transform="matrix(0.707107 0.707107 0.707107 -0.707107 27.9222 68.7983)" fill="black" stroke="black" stroke-width="0.5"/>
<rect id="Rectangle 7_2" x="-0.25" y="0.25" width="17.5" height="220.5" rx="8.75" transform="matrix(-1 0 0 1 42.6741 1.00002)" fill="#aaa" stroke="black" stroke-width="0.5"/>
<rect id="Rectangle 3" x="-0.5" y="0.5" width="5" height="81" rx="2.5" transform="matrix(-1 0 0 1 138.174 7.00002)" fill="#aaa" stroke="black"/>
<rect id="Rectangle 7_3" x="0.25" y="0.25" width="17.1087" height="134.5" rx="8.55435" transform="matrix(-1.19249e-08 1 1 1.19249e-08 25 0.284088)" fill="#aaa" stroke="black" stroke-width="0.5"/>
<path id="Vector 144" d="M150.102 97.8561C146.262 96.6823 142.662 94.0433 139.969 91.5117C137.592 89.2762 136.913 85.759 138.418 82.8628C142.584 74.8416 148.931 72.883 151.99 73.0053C158.568 73.2684 162.055 77.3909 163.597 80.8661C164.426 82.7345 164.51 84.8481 164.012 86.8306C162.969 90.9829 160.626 94.014 158.363 95.9921C156.102 97.969 152.974 98.7343 150.102 97.8561Z" fill="#aaa" stroke="black" stroke-width="0.25" stroke-linecap="round" stroke-linejoin="round"/>
<path id="hangman-legs" d="M128.131 166.455C128.552 160.313 129.174 147.279 129.496 140.026L148.733 139C148.982 139.305 148.86 149.693 149.644 159.636C150.147 166.02 151.089 179.569 144.768 178.546C140.937 177.925 141.581 173.931 141.287 170.061C140.955 165.706 140.655 159.905 140.488 156.215C140.402 154.32 139.527 151.066 138.487 152.651C137.892 153.558 137.831 154.675 137.771 155.758L137.769 155.789L137.023 169.293C136.187 175.923 134.375 179 132.842 179C129.71 179 128.486 176.074 128.047 173.096C127.723 170.905 127.98 168.665 128.131 166.455Z" fill="#aaa" stroke="black" stroke-width="0.25" stroke-linecap="round" stroke-linejoin="round"/>
<path id="Vector 148" d="M128 111.414C128 94.7716 134.21 88.4793 137.677 87C140.71 93.2871 149.3 98 154.5 98C151.727 99.4793 149.667 106.113 149.233 109.935C148.54 115.852 148.944 132.617 149.233 140.26L128 141V111.414Z" fill="#aaa" stroke="black" stroke-width="0.25" stroke-linecap="round" stroke-linejoin="round"/>
<path id="Vector 149" d="M114.257 125.413C115.847 106.728 130.689 88.8395 137.314 87.2493C132.226 91.0656 128.133 103.567 128 109C124.82 109.954 124.461 123.027 124.196 129.388C124.06 130.336 123.874 131.157 123.658 131.865C122.717 134.938 119.26 137.955 116.432 136.428C113.701 134.954 113.78 129.041 114.257 125.413Z" fill="black" stroke="black" stroke-width="0.25" stroke-linecap="round" stroke-linejoin="round"/>
<path id="Vector 151" d="M154.28 128.022C154.035 119.71 150.76 113.98 149 112C149 102.902 152.693 98.6536 154 98C153.373 98.9411 155.151 102.209 156.027 103.96C158.693 109.292 161.024 116.682 162.446 122.867C163.731 128.459 163.884 137.731 158.197 136.966C157.837 136.918 157.484 136.818 157.144 136.673C154.128 135.388 154.376 131.298 154.28 128.022Z" fill="#aaa" stroke="black" stroke-width="0.25" stroke-linecap="round" stroke-linejoin="round"/>
</g>
</svg>

<svg width="165" height="223" fill="#aaa" xmlns="http://www.w3.org/2000/svg"><g stroke="#000"><path d="m2.323 208.501 24.851-54.129-.543 38.244-9.49 19.871c-2.185 4.574-5.605 9.494-10.673 9.415-2.715-.043-4.365-1.553-5.3-3.475-1.522-3.13-.297-6.762 1.155-9.926zm64.527 0L42 154.372l.543 38.244 9.491 19.871c2.184 4.574 5.605 9.494 10.672 9.415 2.715-.043 4.365-1.553 5.3-3.475 1.522-3.13.297-6.762-1.155-9.926z" stroke-width=".5"/><rect x=".354" width="10.979" height="87.506" rx="5.49" transform="scale(1 -1) rotate(-45 -69.086 -68.104)" fill="#000" stroke-width=".5"/><rect x="-.25" y=".25" width="17.5" height="220.5" rx="8.75" transform="matrix(-1 0 0 1 42.674 1)" stroke-width=".5"/><rect x="-.5" y=".5" width="5" height="81" rx="2.5" transform="matrix(-1 0 0 1 138.174 7)"/><rect x=".25" y=".25" width="17.109" height="134.5" rx="8.554" transform="matrix(0 1 1 0 25 .284)" stroke-width=".5"/><path d="M150.102 97.856c-3.84-1.174-7.44-3.813-10.133-6.344-2.377-2.236-3.056-5.753-1.551-8.65 4.166-8.02 10.513-9.979 13.572-9.857 6.578.263 10.065 4.386 11.607 7.861.829 1.868.913 3.982.415 5.965-1.043 4.152-3.386 7.183-5.649 9.161-2.261 1.977-5.389 2.742-8.261 1.864zm-21.971 68.599c.421-6.142 1.043-19.176 1.365-26.429L148.733 139c.249.305.127 10.693.911 20.636.503 6.384 1.445 19.933-4.876 18.91-3.831-.621-3.187-4.615-3.481-8.485-.332-4.355-.632-10.156-.799-13.846-.086-1.895-.961-5.149-2.001-3.564-.595.907-.656 2.024-.716 3.107l-.002.031-.746 13.504c-.836 6.63-2.648 9.707-4.181 9.707-3.132 0-4.356-2.926-4.795-5.904-.324-2.191-.067-4.431.084-6.641z" stroke-width=".25" stroke-linecap="round" stroke-linejoin="round"/><path d="M128 111.414c0-16.642 6.21-22.935 9.677-24.414 3.033 6.287 11.623 11 16.823 11-2.773 1.48-4.833 8.113-5.267 11.935-.693 5.917-.289 22.682 0 30.325L128 141v-29.586z" stroke-width=".25" stroke-linecap="round" stroke-linejoin="round"/><path d="M114.257 125.413c1.59-18.685 16.432-36.573 23.057-38.164-5.088 3.817-9.181 16.318-9.314 21.751-3.18.954-3.539 14.027-3.804 20.388a16.543 16.543 0 0 1-.538 2.477c-.941 3.073-4.398 6.09-7.226 4.563-2.731-1.474-2.652-7.387-2.175-11.015z" fill="#000" stroke-width=".25" stroke-linecap="round" stroke-linejoin="round"/><path d="M154.28 128.022c-.245-8.312-3.52-14.042-5.28-16.022 0-9.098 3.693-13.346 5-14-.627.941 1.151 4.209 2.027 5.96 2.666 5.332 4.997 12.722 6.419 18.907 1.285 5.592 1.438 14.864-4.249 14.099a4.049 4.049 0 0 1-1.053-.293c-3.016-1.285-2.768-5.375-2.864-8.651z" stroke-width=".25" stroke-linecap="round" stroke-linejoin="round"/></g></svg>
